X: 20211
T: Joe Bane's
R: reel
M: 4/4
K: Gmajor
|:B2 B2 BA A2|B>AB>c d>ge>d|B2 B2 BA A2|d2 c>A A>G G2:|
|:e2a2 g3e|d2 B>c d3d|e2a2 g3e|d2 c>A A>G G2|
e2a2 g3e|d2e2f2g2|a>baf g3e|d2 c>A A>G G2|

